client/filepreviewer/pdfjs/web/images/secondaryToolbarButton-scrollHorizontal.svg

<svg width="16" height="16" viewBox="0 0 16 16" fill="none" xmlns="http://www.w3.org/2000/svg">
<path d="M3 3.78C3 2.7621 2.13279 2.11834 1.25 2.01476V2H1V3.5C1.18133 3.5 1.32279 3.5609 1.40708 3.63029C1.48961 3.69823 1.5 3.75458 1.5 3.78V11.72C1.5 11.7454 1.48961 11.8018 1.40708 11.8697C1.32279 11.9391 1.18133 12 1 12V13.5H1.25V13.4852C2.13279 13.3817 3 12.7379 3 11.72V3.78ZM10.5 4C10.5 3.72386 10.2761 3.5 10 3.5H6.5C6.22386 3.5 6 3.72386 6 4V11.5C6 11.7761 6.22386 12 6.5 12H10C10.2761 12 10.5 11.7761 10.5 11.5V4ZM10 2C11.1046 2 12 2.89543 12 4V11.5C12 12.6046 11.1046 13.5 10 13.5H6.5C5.39543 13.5 4.5 12.6046 4.5 11.5V4C4.5 2.89543 5.39543 2 6.5 2H10ZM15.5 2H15.25V2.01476C14.3672 2.11834 13.5 2.7621 13.5 3.78V11.72C13.5 12.7379 14.3672 13.3817 15.25 13.4852V13.5H15.5V12C15.3187 12 15.1772 11.9391 15.0929 11.8697C15.0104 11.8018 15 11.7454 15 11.72V3.78C15 3.75458 15.0104 3.69823 15.0929 3.63029C15.1772 3.5609 15.3187 3.5 15.5 3.5V2Z" fill="black"/>
</svg>

<svg xmlns="http://www.w3.org/2000/svg" width="16" height="16" fill="none" viewBox="0 0 16 16"><path fill="#000" d="M3 3.78c0-1.018-.867-1.662-1.75-1.765V2H1v1.5c.181 0 .323.06.407.13.083.068.093.125.093.15v7.94c0 .025-.01.082-.093.15A.65.65 0 0 1 1 12v1.5h.25v-.015C2.133 13.382 3 12.738 3 11.72zm7.5.22a.5.5 0 0 0-.5-.5H6.5A.5.5 0 0 0 6 4v7.5a.5.5 0 0 0 .5.5H10a.5.5 0 0 0 .5-.5zM10 2a2 2 0 0 1 2 2v7.5a2 2 0 0 1-2 2H6.5a2 2 0 0 1-2-2V4a2 2 0 0 1 2-2zm5.5 0h-.25v.015c-.883.103-1.75.747-1.75 1.765v7.94c0 1.018.867 1.662 1.75 1.765v.015h.25V12a.65.65 0 0 1-.407-.13c-.083-.068-.093-.125-.093-.15V3.78c0-.025.01-.082.093-.15a.65.65 0 0 1 .407-.13z"/></svg>
